packages/katcn/src/icons/svg/arrow6.svg

<svg width="24" height="25" viewBox="0 0 24 25" fill="none" xmlns="http://www.w3.org/2000/svg">
<path d="M5.90565 21.296H3.13962C2.32006 21.296 1.60294 20.896 1.2956 20.196C0.885818 19.496 0.988264 18.596 1.39805 17.896L5.08608 12.596C5.18853 12.396 5.18853 12.196 5.08608 11.996L1.39805 6.69599C0.885818 5.99599 0.885818 5.19599 1.2956 4.39599C1.60294 3.69599 2.32006 3.29599 3.13962 3.29599H5.90565C6.9301 3.29599 7.95456 3.79599 8.46679 4.69599L12.4622 10.496C13.1793 11.596 13.1793 12.996 12.4622 14.096L8.46679 19.896C7.95456 20.796 6.9301 21.296 5.90565 21.296ZM3.03717 5.59599L6.72521 10.896C7.33989 11.696 7.33989 12.896 6.72521 13.696L3.03717 18.996C2.93473 19.096 3.03717 19.196 3.03717 19.196C3.13962 19.296 3.13962 19.296 3.13962 19.296H5.90565C6.21299 19.296 6.62277 19.096 6.82766 18.796L10.823 12.996C11.1304 12.596 11.1304 11.996 10.823 11.596L6.82766 5.79599C6.62277 5.49599 6.21299 5.29599 5.90565 5.29599H3.13962C3.13962 5.29599 3.13962 5.29599 3.03717 5.39599C3.03717 5.39599 3.03717 5.49599 3.03717 5.59599Z" fill="black"/>
<path d="M15.9056 21.296H13.1396C12.3201 21.296 11.6029 20.896 11.2956 20.196C10.8858 19.496 10.9883 18.596 11.398 17.896L15.0861 12.596C15.1885 12.396 15.1885 12.196 15.0861 11.996L11.398 6.69599C10.8858 5.99599 10.8858 5.19599 11.2956 4.39599C11.6029 3.69599 12.3201 3.29599 13.1396 3.29599H15.9056C16.9301 3.29599 17.9546 3.79599 18.4668 4.69599L22.4622 10.496C23.1793 11.596 23.1793 12.996 22.4622 14.096L18.4668 19.896C17.8521 20.796 16.9301 21.296 15.9056 21.296ZM13.1396 5.29599C13.0372 5.29599 13.0372 5.29599 13.1396 5.29599C13.0372 5.39599 13.0372 5.49599 13.0372 5.59599L16.7252 10.896C17.3399 11.696 17.3399 12.896 16.7252 13.696L13.0372 18.996C12.9347 19.096 13.0372 19.196 13.0372 19.196C13.0372 19.296 13.1396 19.296 13.1396 19.296H15.9056C16.213 19.296 16.6228 19.096 16.8277 18.796L20.823 12.996C21.1304 12.596 21.1304 11.996 20.823 11.596L16.8277 5.79599C16.5203 5.49599 16.213 5.29599 15.9056 5.29599H13.1396Z" fill="black"/>
</svg>

<svg xmlns="http://www.w3.org/2000/svg" fill="none" viewBox="0 0 24 25"><path fill="#000" d="M5.906 21.296H3.14c-.82 0-1.537-.4-1.844-1.1-.41-.7-.308-1.6.102-2.3l3.688-5.3q.154-.3 0-.6l-3.688-5.3c-.512-.7-.512-1.5-.102-2.3.307-.7 1.024-1.1 1.844-1.1h2.766c1.024 0 2.049.5 2.56 1.4l3.996 5.8c.717 1.1.717 2.5 0 3.6l-3.995 5.8c-.512.9-1.537 1.4-2.561 1.4m-2.869-15.7 3.688 5.3c.615.8.615 2 0 2.8l-3.688 5.3c-.102.1 0 .2 0 .2l.103.1h2.766c.307 0 .717-.2.922-.5l3.995-5.8c.307-.4.307-1 0-1.4l-3.995-5.8c-.205-.3-.615-.5-.922-.5H3.14l-.103.1z"/><path fill="#000" d="M15.906 21.296H13.14c-.82 0-1.537-.4-1.844-1.1-.41-.7-.308-1.6.102-2.3l3.688-5.3q.153-.3 0-.6l-3.688-5.3c-.512-.7-.512-1.5-.102-2.3.307-.7 1.024-1.1 1.844-1.1h2.766c1.024 0 2.049.5 2.56 1.4l3.996 5.8c.717 1.1.717 2.5 0 3.6l-3.995 5.8c-.615.9-1.537 1.4-2.561 1.4m-2.766-16q-.155 0 0 0c-.103.1-.103.2-.103.3l3.688 5.3c.615.8.615 2 0 2.8l-3.688 5.3c-.102.1 0 .2 0 .2 0 .1.103.1.103.1h2.766c.307 0 .717-.2.922-.5l3.995-5.8c.307-.4.307-1 0-1.4l-3.995-5.8c-.308-.3-.615-.5-.922-.5z"/></svg>
